app/dist/common/images/armac-on-ed-nm.svg

<svg fill="none" height="18" width="18" xmlns="http://www.w3.org/2000/svg"><path d="m0 0h18v18h-18z" fill="#f0f3fa"/><g clip-rule="evenodd" fill-rule="evenodd"><path d="m11 14h-3.444c-1.405 0-2.556-1.082-2.556-2.404v-1.192c0-1.322 1.15-2.404 2.556-2.404h2.444v2h-2c-.499 0-1 0-1 1s.507 1 1 1h3z" fill="#002a99"/><path d="m7 4h3c1.871 0 3 1.114 3 3v5h-2v-4.549c0-1.017-.381-1.451-1.395-1.451h-2.605z" fill="#00a844"/></g></svg>

<!-- by TradingView --><svg width="18" height="18" fill="none" xmlns="http://www.w3.org/2000/svg"><path fill="#F0F3FA" d="M0 0h18v18H0z"/><path fill-rule="evenodd" clip-rule="evenodd" d="M11 14H7.556C6.151 14 5 12.918 5 11.596v-1.192C5 9.082 6.15 8 7.556 8H10v2H8c-.499 0-1 0-1 1s.507 1 1 1h3v2Z" fill="#002A99"/><path fill-rule="evenodd" clip-rule="evenodd" d="M7 4h3c1.871 0 3 1.114 3 3v5h-2V7.451C11 6.434 10.619 6 9.605 6H7V4Z" fill="#00A844"/></svg>
